X:1
T:Där borta
T:Ludvig Norman (1831-1885)
T:Linden
T:©PA Aglert Edition may be freely distributed, duplicated, performed and recorded
T:©PA Aglert Edition may be freely distributed, duplicated, performed and recorded
T:©PA Aglert Edition may be freely distributed, duplicated, performed and recorded
T:©PA Aglert Edition may be freely distributed, duplicated, performed and recorded
T:©PA Aglert Edition may be freely distributed, duplicated, performed and recorded
T:©PA Aglert Edition may be freely distributed, duplicated, performed and recorded
C:Ludvig Norman (1831-1885)
Z:©PA Aglert
Z:Edition may be freely distributed, duplicated, performed and recorded
%%score ( 1 2 ) ( 3 4 ) [ ( 5 6 ) ( 7 8 ) ]
L:1/8
Q:1/4=83
M:6/8
K:E
V:1 treble nm="SA"
V:2 treble 
V:3 bass nm="TB"
V:4 bass 
V:5 treble nm="SA"
V:6 treble 
V:7 bass nm="TB"
V:8 bass 
V:1
"^Andantino quasi Allegretto"!p! G | G>FG A2 c | B2 F G2 z |!pp! .B.B z .B.B z | B>BB!<(! ccc!<)! | %5
w: Det|grön- skar en lind i|som- mar- ro,|liv- ligt, ljuv- ligt|gre- nar- na hö- jas mot|
 e2!>(! c B2!>)! z | z6 | z6 | z6 | z6 | z2 z z2!p! !courtesy!=A | AAA !>!G>GG/>G/ | ccF z dG | %13
w: frid- fullt bo.|||||Små|blom- mor- na sak- ta två och|två fris- ka vis- ka|
!>(! e>dc cB!>)!A | G2 (B/A/) F2 z | z6 | z6 | z6 | z2 z z2!pp! B | BB z z2!mf! B | %20
w: ömt med va- rann, men vad|sä- ger * de?||||De|vis- ka Vem|
!<(! B2 c f!<)!f(B/c/) |!<(! BB>!<)!c!>(! cB!>)! z!pp! | .g.g.f .ee z | %23
w: kan för- stå hen- ne *|väl? Ak- ta! sak- ta!|Vis- ka om grud- gum|
 z/!mf!!<(! c/cc!<)! !>!f2 z | !>!e"^molto rit."!>(!G^A"^dim." BB!>)!c | F2 G E2!p! G | %26
w: och näs- ta år.|Vis- ka om grud- gum och|näs- ta år. Så|
"^a tempo" G>FG AAc | B2 F G2 z |!pp! GG z AA z |!<(!!>(! B2!>)! F GGA!<)! | %30
w: flic- kan hon lyss- nar till|trä- dets sus.|Läng- tar, träng- tar,|sänkt i dröm- mar vid|
!<(!!>(! B2!>)! F G2 z!<)! |!pp!!<(! e3 e3!<)! |!>(! e3 e2 A!>)! | B3 c3 | B2 z z2!ppp! G | %35
w: må- nens ljus,|sänkt i|dröm- mar vid|må- nens|ljus, Så|
 G>FG AAc | B2 F G2 z |] %37
w: flic- kan hon lyss- nar till|trä- dets sus.|
V:2
 E | E>DE E2 E | D2 D E2 z | GG z AA z | G>GG GGG | (GF)^A F2 z | x6 | x6 | x6 | x6 | z2 z z2 F | %11
 FFF ^E>EE/>E/ | FFF z FF | E>EE FFF | E2 E D2 z | x6 | x6 | x6 | z2 z z2 G | AA z z2 A | %20
 G2 =G FFA | !courtesy!^GG>=G FB z | GGG GG z | z/ A/AA B2 z | GEE EEE | E2 D E2 E | E>DE EEE | %27
 D2 D E2 z | EE z EE z | D2 D EEE | D2 D E2 z | B3 A3 | G3 A2 F | G3 A3 | G2 z z2 E | E>DE EEE | %36
 D2 D E2 z |] %37
V:3
!p!"^Kör 1" B, | B,>B,B, C2 A, | F,2 B, B,2 z | z!pp! .E.B, z .F.B, | B,>B,B,!<(! EDC!<)! | %5
w: |||liv- ligt, ljuv- ligt||
 (B,!>(!^A,)E!>)! D2 z | z6 | z6 | z6 | z6 | z2 z z2!p! D | DDB, =D>DD/>D/ | CCC z ^B,B, | %13
w: ||||||||
 G,>G,A, F,F,B, | B,2 C B,2 z | z6 | z6 | z6 | z2 z z2!pp! D | DD z z2!mf! D | %20
w: |||||||
!<(! EB,^A,!<)! =A,F,B, | B,B,>^A, =A,F, z!pp! | B,B,^B, CG, z |!mf! z/ E/EE D2 z | B,E,F, G,B,A, | %25
w: |||||
 A,CB, G,2!p! B, | B,>B,B, CCA, | F,2 B, B,2 z |!pp! B,B, z CC z |!<(!!>(! F,2!>)! B, B,B,E,!<)! | %30
w: |||||
!<(!!>(! F,2!>)! B, B,2 z!<)! |!pp!!<(! =D3 C3!<)! |!>(! B,3 A,2!>)! E, | E,3 E,3 | %34
w: ||||
 E,2 z z2!ppp! B, | B,>B,B, CCA, | F,2 B, B,2 z |] %37
w: |||
V:4
 E, | E,>B,,E, E,2 E, | E,2 E, E,2 z | z .E,.E, z .D,.D, | E,>E,E, E,E,E, | F,2 F, B,,2 z | x6 | %7
 x6 | x6 | x6 | z2 z z2 B, | B,B,B, B,>B,B,/>B,/ | A,A,A, z G,G, | C,>C,C, D,D,D, | %14
 E,2 A,, B,,2 z | x6 | x6 | x6 | z2 z z2 G, | F,F, z z2 B,, | E,2 E, B,,B,,B,, | E,E,>E, B,,B,, z | %22
 E,E,D, C,C, z | z/ A,,/A,,A,, A,2 z | E,E,E, E,E,E, | B,,2 B,, E,2 E, | E,>B,,E, E,E,E, | %27
 E,2 E, E,2 z | E,E, z E,E, z | E,2 E, E,E,C, | B,,2 B,, E,2 z | A,,3 A,,3 | B,,3 C,2 C, | %33
 B,,3 A,,3 | E,2 z z2 E, | E,>B,,E, E,E,E, | E,2 E, E,2 z |] %37
V:5
 z | z6 | z6 | z6 | z6 | z2 z z2!p! G | G>FG A2 c | B2 F G2 z |!pp! .B.B z .B.B z | B>BB c2 c | %10
w: |||||Av|knop- pan- de blom- mor|den är full,|vin- den, lin- den|vag- gar så ljuvt i|
 e2 c B2 z | z6 | z6 | z6 | z2 z z2!p! F | FF/F/F/F/ GGG | cF z dG z | g>!>(!fe d!>)!d!pp! B/c/ | %18
w: so- lens gull.||||De|vis- ka ju om en flic- ka, som|tänk- te, * *|dröm- man- de blic- ken, men hon|
 ddd G2 z | z z3/2!pp! B/ BB z | z2!mf! c !>!f2 B | BB>c fBB | Be z!pp! ee=d | %23
w: viss- te ej vad.|De vis- ka|Vem kan för-|stå hen- ne väl? Ak- ta!|sak- ta! Vis- ka om|
 cc z z/!mf!!<(! B/BB!<)! |!>(! g2 e eB!>)!c | F2 G E2 z | z6 | z2 z z2!p! G | G>FG AAc | %29
w: grud- gum och näs- ta|år, om grud- gum och|näs- ta år.||Så|flic- kan hon lyss- nar till|
!<(!!>(! B2!>)! F G2 z!<)! | z6 |!pp!!<(! (G3 A3)!<)! |!>(! G3 A2!>)! A | B3 c3 | B6- | B2 z z3 | %36
w: trä- dets sus.||sänkt *|dröm- mar vid|må- nens|ljus.||
 z6 |] %37
w: |
V:6
 x | x6 | x6 | x6 | x6 | z2 z z2 E | E>DE E2 E | D2 D E2 z | .G.G z .A.A z | G>GG G2 G | %10
w: ||||||||||
 (GF)^A F2 z | x6 | x6 | x6 | z2 z z2 D | DD/D/D/D/ ^EEE | FF z z GG | G>GG GG G/G/ | GG^^F G2 z | %19
w: ||||||* * sänk- te|||
 z z3/2 A/ AA z | z2 c (cB)A | GG>c cBA | GG z EEE | EE z z/ A/AA | G2 ^A BBE | E2 D E2 z | x6 | %27
w: ||||||||
 z2 z z2 E | E>DE EEE | D2 D E2 z | x6 | E3- E3 | E3 E2 E | E3 (E2 F) | G6- | G2 z z3 | x6 |] %37
w: ||||||||||
V:7
"^Kör 2" z | z6 | z6 | z6 | z6 | z2 z z2!p! B, | B,>B,B, C2 A, | F,2 B, B,2 z | %8
w: ||||||||
 z!pp! .E.B, z .F.B, | B,>B,B, (ED)C | (B,^A,)E D2 z | z6 | z6 | z6 | z2 z z2!p! B, | %15
w: vin- den, lin- den|||||||
 B,B,/B,/B,/B,/ !>!=D3 | C/C/FC ^B,F z | !>!E>!>(!DC B,B,!>)!!pp! D/C/ | B,B,^A, B,2 z | %19
w: * * * * * flic-|ka, som tänk- te, sänk- te|||
 z z3/2!pp! D/ DD z | z2!mf! E (ED)C | CC>E EDB, | B,G, z!pp! CG,G, | A,E, z!mf! z/ D/DD | %24
w: |||||
 E2 E EB,!courtesy!=A, | A,CB, G,2 z | z6 | z2 z z2!p! B, | B,>B,B, CCA, | %29
w: |||||
!<(!!>(! F,2!>)! B, B,2 z!<)! | z6 |!pp!!<(! E,3- E,3!<)! |!>(! E,3 E,2!>)! E | =D3 (C2 ^D) | E6- | %35
w: ||||||
 E2 z z3 | z6 |] %37
w: ||
V:8
 x | x6 | x6 | x6 | x6 | z2 z z2 E, | E,>B,,E, E,2 E, | E,2 E, E,2 z | z .E,.E, z .D,.D, | %9
 E,>E,E, E,2 E, | F,2 F, B,,2 z | x6 | x6 | x6 | z2 z z2 B, | B,B,/B,/B,/B,/ B,B,B, | %16
 A,A, z G,G, z | C,>C,C, D,D, E,/E,/ | D,D,D, G,2 z | z z3/2 B,,/ B,,B,, z | z2 E, B,,2 D, | %21
 E,E,>E, B,,B,,D, | E,E, z C,C,B,, | A,,A,, z z/ F,/F,F, | E,2 C, B,,G,,!courtesy!=A,, | %25
 B,,2 B,, E,2 z | x6 | z2 z z2 E, | E,>E,E, E,E,E, | E,2 E, E,2 z | x6 | A,,3- A,,3 | B,,3 C,2 C, | %33
 B,,3 A,,3 | [E,,E,]6- | [E,,E,]2 z z3 | x6 |] %37

